svgs/sharp-light/align-right.svg

<svg xmlns="http://www.w3.org/2000/svg" viewBox="0 0 448 512"><!--! Font Awesome Pro 6.6.0 by @fontawesome - https://fontawesome.com License - https://fontawesome.com/license (Commercial License) Copyright 2024 Fonticons, Inc. --><path d="M432 48l16 0 0 32-16 0L176 80l-16 0 0-32 16 0 256 0zm0 128l16 0 0 32-16 0L16 208 0 208l0-32 16 0 416 0zm16 128l0 32-16 0-256 0-16 0 0-32 16 0 256 0 16 0zM432 432l16 0 0 32-16 0L16 464 0 464l0-32 16 0 416 0z"/></svg>

<svg xmlns="http://www.w3.org/2000/svg" viewBox="0 0 448 512"><!--! Font Awesome Pro 6.4.0 by @fontawesome - https://fontawesome.com License - https://fontawesome.com/license (Commercial License) Copyright 2023 Fonticons, Inc. --><path d="M432 48h16V80H432 176 160V48h16H432zm0 128h16v32H432 16 0V176H16 432zm16 128v32H432 176 160V304h16H432h16zM432 432h16v32H432 16 0V432H16 432z"/></svg>
